X: 41704
T: Valhermeil
R: slide
M: 12/8
K: Eminor
|:GAG FGF EFE DED|EFG FED EFG AGF|
GAG FGF EFE DED|EFG FED EEE EEE:|
|:GAG FGF G2AA3|DED EFG F2 FF3|
AGF GFD E2 EE3|DED EFG E2 EE3:|
|:B3 d3 f2g f2d|e3 c3 e2e fga|
B3 d3 fgf dfg|efe cef gfg aga:|
|:a2a g2g f2f efg|g2g f2f e3 efg|
f2f d2d f2f gfd|e2e c2c e6:|

